assets/images/icons/person.svg

<svg width="15" height="16" viewBox="0 0 15 16" fill="none" xmlns="http://www.w3.org/2000/svg">
<path d="M1.66667 16H0V15.1579C0.00367386 11.9039 2.6132 9.26687 5.83333 9.26316H9.16667C12.3868 9.26687 14.9963 11.9039 15 15.1579V16H13.3333V15.1579C13.3306 12.8336 11.4667 10.9502 9.16667 10.9474H5.83333C3.53329 10.9502 1.66942 12.8336 1.66667 15.1579V16ZM7.5 8.42105C5.19881 8.42105 3.33333 6.53594 3.33333 4.21053C3.33333 1.88512 5.19881 0 7.5 0C9.80119 0 11.6667 1.88512 11.6667 4.21053C11.6639 6.53478 9.80004 8.41827 7.5 8.42105ZM7.5 1.68421C6.11929 1.68421 5 2.81528 5 4.21053C5 5.60577 6.11929 6.73684 7.5 6.73684C8.88071 6.73684 10 5.60577 10 4.21053C10 2.81528 8.88071 1.68421 7.5 1.68421Z" fill="#79655E"/>
</svg>

<svg width="15" height="16" fill="none" xmlns="http://www.w3.org/2000/svg"><path d="M1.667 16H0v-.842c.004-3.254 2.613-5.891 5.833-5.895h3.334c3.22.004 5.83 2.64 5.833 5.895V16h-1.667v-.842c-.002-2.324-1.866-4.208-4.166-4.21H5.833c-2.3.002-4.164 1.886-4.166 4.21V16zM7.5 8.421c-2.301 0-4.167-1.885-4.167-4.21C3.333 1.885 5.2 0 7.5 0c2.301 0 4.167 1.885 4.167 4.21C11.664 6.536 9.8 8.419 7.5 8.422zm0-6.737C6.12 1.684 5 2.815 5 4.211c0 1.395 1.12 2.526 2.5 2.526S10 5.606 10 4.21c0-1.396-1.12-2.527-2.5-2.527z" fill="#79655E"/></svg>
